X:1
T:Moto Perpetuo
T:Moto Perpetuo
T:Perpetual Motion
T:Niccolo Paganini Op.11
T:Benoit Boisvert
T:Benoit Boisvert
T:Benoit Boisvert
T:Benoit Boisvert
T:Benoit Boisvert
T:Benoit Boisvert
T:Benoit Boisvert
T:Benoit Boisvert
T:Benoit Boisvert
T:Benoit Boisvert
T:Benoit Boisvert
T:Benoit Boisvert
T:Benoit Boisvert
T:Benoit Boisvert
T:Benoit Boisvert
T:Benoit Boisvert
T:Benoit Boisvert
T:Benoit Boisvert
T:Benoit Boisvert
T:Benoit Boisvert
T:Benoit Boisvert
T:Benoit Boisvert
T:Benoit Boisvert
T:Benoit Boisvert
C:Niccolo Paganini Op.11
Z:Benoit Boisvert
%%score 1 { ( 2 4 ) | 3 }
L:1/8
M:4/4
K:C
V:1 treble nm="Violon" snm="Vln."
V:2 treble nm="Piano" snm="Pia."
V:4 treble 
V:3 bass 
V:1
 z8 | z2 z2 c/d/c/B/ c/d/e/c/ | d/c/B/A/ G/A/B/c/ d/e/f/e/ g/f/e/d/ | %3
 e/f/e/d/ c/d/e/f/ g/f/e/d/ ^c/e/a/g/ | f/e/d/c/ B/d/g/f/ e/d/c/B/ A/d/e/d/ | %5
 c/B/A/G/ ^F/G/A/B/ c/d/c/B/ c/d/e/c/ | d/c/B/A/ G/A/B/c/ d/e/f/e/ g/f/e/d/ | %7
 e/f/e/d/ c/d/e/f/ g/f/e/d/ ^c/e/a/g/ | f/e/d/c/ B/d/g/f/ e/d/c/B/ A/c/f/e/ | %9
 d/c/B/A/ ^G/B/e/d/ c/B/A/=G/ ^F/A/d/c/ | B/A/G/A/ B/c/d/c/ B/c/d/e/ f/g/a/g/ | %11
 a/g/^f/g/ a/g/=f/e/ g/f/e/f/ g/f/e/d/ | f/e/_e/=e/ f/e/d/c/ e/d/^c/d/ e/d/=c/B/ | %13
 c/G/A/B/ c/d/e/f/ g/f/e/f/ g/a/b/c'/ | a/b/c'/b/ d'/c'/b/a/ a/g/^f/g/ b/a/g/=f/ | %15
 e/G/A/B/ c/d/e/f/ g/f/e/f/ g/a/b/c'/ | a/b/c'/b/ d'/c'/b/a/ a/g/^f/g/ b/a/g/=f/ | %17
 e/g/f/e/ f/g/a/b/ c'/b/c'/b/ d'/c'/b/a/ | ^g/a/b/a/ g/e/^f/g/ a/b/c'/b/ c'/b/a/=g/ | %19
 ^f/g/a/g/ f/d/e/f/ g/f/g/a/ b/a/g/f/ | g/^f/e/_e/ =e/f/g/f/ a/g/f/e/ d/^c/B/c/ | %21
 d/D/E/^F/ G/A/B/^c/ d/e/^f/g/ a/b/c'/d'/ | c'/b/d'/b/ a/g/b/g/ ^f/e/g/e/ d/^c/e/c/ | %23
 d/D/E/^F/ G/A/B/^c/ d/e/^f/g/ a/f/d/=c/ | c/B/d/B/ A/G/B/G/ ^F/E/G/E/ D/^C/E/C/ | %25
 D/^F/A/d/ ^c/e/a/g/ ^f/a/f/d/ c/A/G/E/ | D/^F/A/d/ ^c/e/a/g/ ^f/a/f/d/ c/A/G/E/ | %27
 D/^F/A/d/ ^f/a/^c'/d'/ =c'/b/a/g/ f/e/d/c/ | B/c/d/e/ ^f/g/a/b/ a/g/f/e/ _e/c/B/A/ | %29
 G/A/B/^c/ _e/=e/^f/g/ =f/e/d/=c/ B/A/G/F/ | E/^F/G/A/ B/c/d/e/ e/d/B/d/ d/c/B/A/ | %31
 G/d'/b/a/ ^g/b/e/g/ a/c'/a/=g/ ^f/a/d/f/ | g/b/g/^f/ e/g/c/e/ f/a/f/e/ _e/f/B/e/ | %33
 e/g/e/d/ ^c/e/A/c/ d/e/^f/g/ a/b/c'/d'/ | c'/b/d'/b/ b/a/c'/a/ a/g/b/g/ g/^f/a/f/ | %35
 g/d/B/A/ ^G/f/e/d/ c/B/A/=G/ ^F/e/d/c/ | B/A/G/^F/ E/d/c/B/ A/G/F/E/ _E/c/B/A/ | %37
 G/^F/E/D/ ^C/B/A/G/ F/D/E/F/ G/A/B/c/ | d/e/d/B/ c/d/c/A/ B/c/B/G/ A/B/A/^F/ | %39
 G/B/d/g/ ^f/a/g/e/ d/f/a/d'/ ^c'/d'/=c'/a/ | g/b/a/g/ ^f/a/g/e/ d/^c/e/d/ =c/B/c/A/ | %41
 G/B/A/G/ ^F/A/G/E/ D/^C/E/D/ =C/B,/C/A,/ | G,/B,/D/G/ ^F/D/C/A,/ G,/B,/D/G/ F/D/C/A,/ | %43
 G,/B,/D/G/ B/d/^f/g/ f/g/f/g/ f/g/f/g/ | ^g/a/g/a/ g/a/g/a/ =g/^f/e/f/ g/f/e/d/ | %45
 c/B/d/c/ B/c/A/B/ G/A/G/^F/ G/B/A/c/ |[Q:1/4=110] B/d/c/e/ d/f/e/g/ f/d/B/G/ ^G/=G/^F/G/ | %47
 A/G/^F/G/ ^G/A/_B/=B/[Q:1/4=120] c/d/c/B/ c/d/e/c/ | d/c/B/A/ G/A/B/c/ d/e/f/e/ g/f/e/d/ | %49
 e/f/e/d/ c/d/e/f/ g/f/e/d/ ^c/e/a/g/ | f/e/d/c/ B/d/g/f/ e/d/c/B/ A/d/e/d/ | %51
 c/B/A/G/ ^F/G/A/B/ c/d/c/B/ c/d/e/c/ | d/c/B/A/ G/A/B/c/ d/e/f/e/ g/f/e/d/ | %53
 e/f/e/d/ c/d/e/f/ g/f/e/d/ ^c/e/a/g/ | f/e/d/c/ B/d/g/f/ e/d/c/B/ A/c/f/e/ | %55
 d/c/B/A/ ^G/B/e/d/ c/B/A/=G/ ^F/A/d/c/ | B/A/G/A/ B/c/d/c/ B/c/d/e/ f/g/a/g/ | %57
 a/g/^f/g/ a/g/=f/e/ g/f/e/f/ g/f/e/d/ | f/e/_e/=e/ f/e/d/c/ e/d/^c/d/ e/d/=c/B/ | %59
 c/G/A/B/ c/d/e/f/ g/f/e/f/ g/a/b/c'/ | a/b/c'/b/ d'/c'/b/a/ a/g/^f/g/ b/a/g/=f/ | %61
 e/G/A/B/ c/d/e/f/ g/f/e/f/ g/a/b/c'/ | a/b/c'/b/ d'/c'/b/a/ a/g/^f/g/ b/a/g/=f/ | %63
 e/g/f/e/ f/g/a/b/ c'/b/c'/b/ d'/c'/b/a/ | ^g/a/b/a/ g/e/^f/g/ a/b/c'/b/ c'/b/a/=g/ | %65
 ^f/g/a/g/ f/d/e/f/ g/f/g/a/ b/a/g/f/ | g/^f/e/_e/ =e/f/g/f/ a/g/f/e/ d/^c/B/c/ | %67
 d/D/E/^F/ G/A/B/^c/ d/e/^f/g/ a/b/c'/d'/ | c'/b/d'/b/ a/g/b/g/ ^f/e/g/e/ d/^c/e/c/ | %69
 d/D/E/^F/ G/A/B/^c/ d/e/^f/g/ a/f/d/=c/ | c/B/d/B/ A/G/B/G/ ^F/E/G/E/ D/^C/E/C/ | %71
 D/^F/A/d/ ^c/e/a/g/ ^f/a/f/d/ c/A/G/E/ | D/^F/A/d/ ^c/e/a/g/ ^f/a/f/d/ c/A/G/E/ | %73
 D/^F/A/d/ ^f/a/^c'/d'/ =c'/b/a/g/ f/e/d/c/ | B/c/d/e/ ^f/g/a/b/ a/g/f/e/ _e/c/B/A/ | %75
 G/A/B/^c/ _e/=e/^f/g/ =f/e/d/=c/ B/A/G/F/ | E/^F/G/A/ B/c/d/e/ e/d/B/d/ d/c/B/A/ | %77
 G/d'/b/a/ ^g/b/e/g/ a/c'/a/=g/ ^f/a/d/f/ | g/b/g/^f/ e/g/c/e/ f/a/f/e/ _e/f/B/e/ | %79
 e/g/e/d/ ^c/e/A/c/ d/e/^f/g/ a/b/c'/d'/ | c'/b/d'/b/ b/a/c'/a/ a/g/b/g/ g/^f/a/f/ | %81
 g/d/B/A/ ^G/f/e/d/ c/B/A/=G/ ^F/e/d/c/ | B/A/G/^F/ E/d/c/B/ A/G/F/E/ _E/c/B/A/ | %83
 G/^F/E/D/ ^C/B/A/G/ F/D/E/F/ G/A/B/c/ | d/e/d/B/ c/d/c/A/ B/c/B/G/ A/B/A/^F/ | %85
 G/B/d/g/ ^f/a/g/e/ d/f/a/d'/ ^c'/d'/=c'/a/ | g/b/a/g/ ^f/a/g/e/ d/^c/e/d/ =c/B/c/A/ | %87
 G/B/A/G/ ^F/A/G/E/ D/^C/E/D/ =C/B,/C/A,/ | G,/B,/D/G/ ^F/D/C/A,/ G,/B,/D/G/ F/D/C/A,/ | %89
 G,/B,/D/G/ B/d/^f/g/ f/g/f/g/ f/g/f/g/ | ^g/a/g/a/ g/a/g/a/ =g/f/e/f/ g/f/e/d/ | %91
 c/B/d/c/ B/c/d/e/ f/e/d/c/ B/d/B/A/ | ^G/A/B/A/ G/B/G/F/ E/F/_E/F/ =E/F/_E/F/ | %93
[Q:1/4=100] E/F/_E/=E/ F/^F/G/^G/[Q:1/4=120] A/B/A/G/ A/B/c/A/ | %94
 B/A/^G/F/ E/^F/=G/A/ B/c/d/c/ e/d/c/B/ | c/d/c/B/ A/^G/A/B/ c/d/c/B/ c/d/e/c/ | %96
 d/c/B/A/ G/A/B/c/ d/e/f/e/ g/f/e/d/ | e/f/e/d/ c/B/c/d/ e/^f/e/_e/ =e/f/g/e/ | %98
 ^f/e/_e/c/ B/^c/e/=e/ f/g/a/g/ b/a/g/f/ | g/b/_b/=b/ c'/b/a/g/ ^f/a/^g/a/ b/a/=g/f/ | %100
 e/g/^f/g/ a/g/f/e/ _e/=e/f/g/ a/f/e/_e/ | e/^g/b/a/ g/f/e/d/ ^c/d/e/f/ =g/a/_b/c/ | %102
 c/^f/a/g/ f/e/d/c/ B/c/d/e/ =f/g/^g/B/ | _B/e/g/f/ e/d/c/=B/ A/B/c/d/ e/f/g/f/ | %104
 d/e/f/g/ a/_b/c'/d'/ d'/c'/b/a/ c'/b/a/g/ | f/c/B/c/ d/c/B/c/ f/c/B/c/ a/c/B/c/ | %106
 _b/c'/b/a/ g/a/g/f/ e/f/g/f/ e/d/c/_B/ | A/c/B/c/ d/c/B/c/ f/c/B/c/ a/c/B/c/ | %108
 _b/c'/b/a/ g/a/g/f/ e/f/g/f/ e/d/c/_B/ | A/c/d/e/ f/e/f/g/ a/g/f/e/ d/f/e/d/ | %110
 ^c/d/e/c/ A/c/d/e/ f/e/d/c/ d/=c/B/A/ | ^G/A/B/G/ E/d/c/B/ A/G/A/c/ B/_B/=B/d/ | %112
 c/B/c/e/ ^c/a/g/e/ d/a/^f/e/ _e/c'/b/a/ | ^g/e/_e/=e/ f/e/_e/=e/ =g/e/_e/=e/ b/e/_e/=e/ | %114
 c'/d'/c'/b/ a/b/a/^g/ a/e/f/e/ d/c/B/A/ | ^G/E/_E/=E/ F/E/_E/=E/ G/E/_E/=E/ B/E/_E/=E/ | %116
 c/d/c/B/ A/B/A/^G/ A/E/F/E/ D/C/B,/A,/ | E/e/f/e/ ^g/e/f/e/ a/e/f/e/ b/e/f/e/ | %118
 c'/a/b/a/ ^c'/a/_b/a/ d'/a/b/a/ e'/a/b/a/ | %119
 f'/e'/d'/^c'/ d'/c'/d'/e'/ f'/e'/g'/f'/ e'/d'/=c'/_b/ | %120
 a/^g/a/b/ c'/d'/e'/f'/ e'/_e'/=e'/f'/ e'/d'/c'/b/ | a/a/_b/a/ g/f/e/g/ f/e/d/f/ e/d/^c/e/ | %122
 d/e/f/g/ f/e/d/f/ e/d/c/e/ d/c/B/d/ | c/d/e/f/ e/d/c/e/ d/c/B/d/ c/B/A/c/ | %124
 B/_e/=e/f/ e/d/c/e/ d/c/B/d/ c/B/A/c/ | B/e/f/e/ ^g/e/f/e/ a/e/f/e/ b/e/f/e/ | %126
 c'/a/b/a/ ^c'/a/_b/a/ d'/a/b/a/ e'/a/b/a/ | %127
 f'/e'/d'/^c'/ d'/c'/d'/e'/ f'/e'/g'/f'/ e'/d'/=c'/_b/ | %128
 a/b/a/^g/ a/g/a/b/ c'/a/^f/_e/ c/A/^F/_E/ |[Q:1/4=100] E/A/^G/B/ A/c/B/d/ c/e/_e/f/ =e/a/^g/b/ | %130
 a/c'/b/d'/ c'/e'/d'/f'/ e'/f'/_e'/f'/ =e'/f'/_e'/f'/ | %131
 e'/a'/g'/f'/ e'/d'/c'/b/ a/g/f/e/ d/c/B/A/ |[Q:1/4=120] B/d/f/e/ d/c/B/A/ ^G/F/E/D/ C/B,/A,/^G,/ | %133
 A,/e/_e/=e/ ^f/e/_e/=e/ a/e/_e/=e/ ^c'/e/_e/=e/ | d'/e'/d'/^c'/ b/c'/b/a/ ^g/a/b/a/ g/^f/e/d/ | %135
 ^c/e/_e/=e/ ^f/e/_e/=e/ a/e/_e/=e/ c'/e/_e/=e/ | d'/e'/d'/c'/ b/c'/b/a/ ^g/a/b/a/ g/f/e/d/ | %137
 c/a/^g/a/ b/a/g/a/ _b/a/=g/f/ e/c/d/e/ | f/e/f/g/ a/e/f/a/ g/f/e/d/ ^c/A/B/c/ | %139
 d/^c/d/e/ f/c/d/g/ f/e/d/=c/ B/G/A/B/ | c/B/c/e/ d/^c/d/f/ e/_e/=e/g/ ^f/d'/c'/a/ | %141
 g/g/^f/g/ a/g/f/g/ b/g/f/g/ d'/g/f/g/ | _e'/f'/e'/d'/ c'/d'/c'/b/ c'/g/^g/=g/ f/_e/d/c/ | %143
 B/G/^F/G/ ^G/=G/F/G/ B/G/F/G/ d/G/F/G/ | _e/f/e/d/ c/d/c/B/[Q:1/4=110] c/G/^G/=G/ F/_E/D/C/ | %145
[Q:1/4=100] G,/B,/D/G/ c/G/_E/C/ G/B/d/g/ c'/g/_e/c/ | g/b/d'/g'/ c'/g/_e/c/ G/B/d/g/ c/G/_E/C/ | %147
 G,/B,/D/G/ B/d/^f/g/ f/g/f/g/ f/g/f/g/ | ^g/a/g/a/ g/a/b/a/ =g/f/e/f/ g/f/e/d/ | %149
 c/B/d/c/ B/c/A/B/ G/A/G/^F/ G/B/A/c/ | B/d/c/e/ d/f/e/g/ f/d/B/G/ ^G/=G/^F/G/ | %151
 A/G/^F/G/ ^G/A/_B/=B/[Q:1/4=120] c/d/c/B/ c/d/e/c/ | d/c/B/A/ G/A/B/c/ d/e/f/e/ g/f/e/d/ | %153
 e/f/e/d/ c/d/e/f/ g/f/e/d/ ^c/e/a/g/ | f/e/d/c/ B/d/g/f/ e/d/c/B/ A/d/e/d/ | %155
 c/B/A/G/ ^F/G/A/B/ c/d/c/B/ c/d/e/c/ | d/c/B/A/ G/A/B/c/ d/e/f/e/ g/f/e/d/ | %157
 e/f/e/d/ c/e/g/a/ _b/a/g/f/ e/d/c/_B/ | A/c/d/e/ f/g/a/b/ c'/b/a/g/ ^f/e/d/c/ | %159
 B/d/g/a/ b/c'/d'/e'/ f'/e'/d'/c'/[Q:1/4=110] b/a/g/f/ | %160
[Q:1/4=100] e/c'/a/e/ d/b/^g/d/ c/a/e/c/ _B/=g/e/B/ | %161
[Q:1/4=120] A/F/A/c/ f/A/c/f/ a/c'/a/c'/ _e'/c'/a/^f/ | %162
 g/e'/d'/c'/ b/d'/c'/a/ g/^f/a/g/ =f/e/f/d/ | c/_e/d/e/ f/e/d/e/ ^g/e/d/e/ c'/e/d/e/ | %164
 ^c'/_e'/=c'/^c'/ _b/c'/^g/b/ =g/^g/b/g/ =g/f/_e/^c/ | %165
 c/^G/_B/c/ ^c/_e/f/g/ ^g/_b/c'/d'/ _e'/c'/a/^f/ | g/^f/a/g/ =f/e/d/c/ B/A/G/F/ E/D/C/B,/ | %167
 C/_E/D/E/ F/E/D/E/ ^G/E/D/E/ c/E/D/E/ | ^c/_e/=c/^c/ _B/c/^G/B/ =G/^G/B/G/ =G/F/_E/^C/ | %169
 C/^G,/_B,/C/ ^C/_E/F/G/ ^G/_B/c/d/ _e/c/G/^F/ | G/c/e/g/ ^f/g/=f/e/ d/c/B/A/ G/F/E/D/ | %171
 C/e/e'/d'/ ^c'/a/b/c'/ d'/f'/d'/=c'/ b/g/a/b/ | c'/e'/c'/b/ a/f/g/a/ b/d'/b/a/ ^g/e/^f/g/ | %173
 a/c'/a/g/ ^f/d/e/f/ g/a/b/c'/ d'/e'/f'/d'/ | f'/e'/d'/c'/ ^g/a/f/d/ a/=g/e/c/ g/f/d/B/ | %175
 c/g/e/d/ ^c/_b/a/g/ f/e/d/=c/ B/a/g/f/ | e/d/c/B/ A/g/f/e/ d/c/B/A/ ^G/f/e/d/ | %177
 c/B/A/G/ ^F/e/d/c/ B/G/A/B/ c/d/e/f/ | f/e/d/c/ ^G/A/F/D/ A/=G/E/C/ G/F/D/B,/ | %179
 C/E/G/c/ e/c/B/A/ G/B/d/^f/ g/=f/d/B/ | c/e/g/c'/ e'/c'/b/a/ g/a/b/c'/ d'/f'/d'/b/ | %181
 c'/b/c'/e'/ d'/c'/b/a/ g/^f/a/g/ =f/e/f/d/ | c/B/c/e/ d/c/B/A/ G/^F/A/G/ =F/E/F/D/ | %183
[Q:1/4=105] C/E/G/c/ B/G/F/D/ C/E/G/c/ G/B/d/g/ | c/e/g/c'/ b/g/f/d/ c/e/g/c'/ g/b/d'/g'/ | %185
 C/C/D/E/ F/G/A/B/ c/c/d/e/ f/g/a/b/ | c'/c'/d'/e'/ f'/g'/a'/b'/ c''/c''/b'/a'/ g'/f'/e'/d'/ | %187
 c'/c'/b/a/ g/f/e/d/ c/c/B/A/ G/F/E/D/ | C z z2{cg} e' z z2 | C4 z4 |] %190
V:2
 z8 | z2 [G,CE]2 z2 [G,CE]2 | z2 [G,DF]2 z2 [G,DF]2 | z2 [G,CE]2 z2 [A,EG]2 | %4
 [A,DF]2 [B,DF]2 [CE]2 [CD^F]2 | [B,DG]2 z2 z2 [G,CE]2 | z2 [G,DF]2 z2 [G,DF]2 | %7
 z2 [G,CE]2 z2 [A,EG]2 | [A,DF]2 [B,DF]2 [CE]2 [A,CE]2 | [B,D]2 [^G,B,D]2 [A,C]2 [A,C^F]2 | %10
 [B,G]2 z2 z2 [DGB]2 | z2 [CGc]2 z2 [FAd]2 | z2 [EGc]2 z2 [FGB]2 | [EGc]2 z2 z2 [CGc]2 | %14
 z2 [CFA]2 z2 [B,DG]2 | [G,CE]2 z2 z2 [CGc]2 | z2 [CFA]2 z2 [B,DG]2 | z2 [G,CE]2 z2 [A,CE]2 | %18
 z2 [DE^G]2 z2 [CEA]2 | z2 [CD^F]2 z2 [B,DG]2 | z2 [B,EG]2 z2 [A,EG]2 | [A,D^F]2 z2 z2 [CDA]2 | %22
 z2 [B,DG]2 z2 [^CEG]2 | [A,D^F]2 z2 z2 [CDA]2 | z2 [B,DG]2 z2 [E,A,^C]2 | %25
 [^F,A,D]2 [A,^CE]2 [A,D^F]2 [G,A,C]2 | [^F,A,D]2 [A,^CE]2 [A,D^F]2 [G,A,C]2 | %27
 [A,D^F]2 z2 z2 [CDA]2 | z2 [B,DG]2 z2 [A,B,^F]2 | z2 [G,B,E]2 z2 [G,B,D]2 | %30
 [G,CE]2 z2 [B,DG]2 [CD^F]2 | [B,DG]2 [B,E^G]2 [CEA]2 [A,D^F]2 | %32
 [B,DG]2 [G,CE]2 [A,C^F]2 [^F,B,^D]2 | [G,B,E]2 [E,A,^C]2 [^F,A,D]2 [A,D^F]2 | %34
 [B,DG]2 [EA]2 [DGB]2 [C^FA]2 | [B,DG]2 [B,E^G]2 [CEA]2 [A,D^F]2 | %36
 [B,DG]2 [G,CE]2 [A,C^F]2 [^F,B,^D]2 | [G,B,E]2 [E,A,^C]2 [^F,A,D]2 [A,D^F]2 | %38
 [B,DG]2 [EA]2 [DGB]2 [C^FA]2 | z2 [B,DG]2 z2 [CDA]2 | z2 [B,DG]2 z2 [CD^F]2 | %41
 z2 [B,DG]2 z2 [CD^F]2 | [B,DG]2 [CD^F]2 [B,DG]2 [CDF]2 | [B,DG]2 z2 z4 | [CFA]2 z2 z4 | %45
 [B,FG]2 z2 z4 | z8 | z2 z2 z2 [G,CE]2 | z2 [G,DF]2 z2 [G,DF]2 | z2 [G,CE]2 z2 [A,EG]2 | %50
 [A,DF]2 [B,DF]2 [CE]2 [CD^F]2 | [B,DG]2 z2 z2 [G,CE]2 | z2 [G,DF]2 z2 [G,DF]2 | %53
 z2 [G,CE]2 z2 [A,EG]2 | [A,DF]2 [B,DF]2 [CE]2 [A,CE]2 | [B,D]2 [^G,B,D]2 [A,C]2 [A,C^F]2 | %56
 [B,G]2 z2 z2 [DGB]2 | z2 [CGc]2 z2 [FAd]2 | z2 [EGc]2 z2 [FGB]2 | [EGc]2 z2 z2 [CGc]2 | %60
 z2 [CFA]2 z2 [B,DG]2 | [G,CE]2 z2 z2 [CGc]2 | z2 [CFA]2 z2 [B,DG]2 | z2 [G,CE]2 z2 [A,CE]2 | %64
 z2 [DE^G]2 z2 [CEA]2 | z2 [CD^F]2 z2 [B,DG]2 | z2 [B,EG]2 z2 [A,EG]2 | [A,D^F]2 z2 z2 [CDA]2 | %68
 z2 [B,DG]2 z2 [^CEG]2 | [A,D^F]2 z2 z2 [CDA]2 | z2 [B,DG]2 z2 [E,A,^C]2 | %71
 [^F,A,D]2 [A,^CE]2 [A,D^F]2 [G,A,C]2 | [^F,A,D]2 [A,^CE]2 [A,D^F]2 [G,A,C]2 | %73
 [A,D^F]2 z2 z2 [CDA]2 | z2 [B,DG]2 z2 [A,B,^F]2 | z2 [G,B,E]2 z2 [G,B,D]2 | %76
 [G,CE]2 z2 [B,DG]2 [CD^F]2 | [B,DG]2 [B,E^G]2 [CEA]2 [A,D^F]2 | %78
 [B,DG]2 [G,CE]2 [A,C^F]2 [^F,B,^D]2 | [G,B,E]2 [E,A,^C]2 [^F,A,D]2 [A,D^F]2 | %80
 [B,DG]2 [EA]2 [DGB]2 [C^FA]2 | [B,DG]2 [B,E^G]2 [CEA]2 [A,D^F]2 | %82
 [B,DG]2 [G,CE]2 [A,C^F]2 [^F,B,^D]2 | [G,B,E]2 [E,A,^C]2 [^F,A,D]2 [A,D^F]2 | %84
 [B,DG]2 [EA]2 [DGB]2 [C^FA]2 | z2 [B,DG]2 z2 [CDA]2 | z2 [B,DG]2 z2 [CD^F]2 | %87
 z2 [B,DG]2 z2 [CD^F]2 | [B,DG]2 [CD^F]2 [B,DG]2 [CDF]2 | [B,DG]2 z2 z4 | [CFA]2 z2 z4 | %91
 [DFA]2 z2 z4 | [B,E^G]2 z2 z4 | z4 z2 [CEA]2 | z2 [B,E^G]2 z2 [B,EG]2 | z2 [CEA]2 z2 [CEG]2 | %96
 z2 [FGB]2 z2 [FGB]2 | z2 [EGc]2 z2 [EGB]2 | z2 [AB^d]2 z2 [ABd]2 | z2 [GBe]2 z2 [EAc]2 | %100
 z2 [EGB]2 z2 [AB^d]2 | z2 [^GBe]2 z2 [=GA^c]2 | z2 [^FAd]2 z2 [=FGB]2 | z2 [EG_B]2 z2 [CFA]2 | %104
 [DF_B]2 z2 [CFA]2 [_B,EG]2 | [A,CF]2 z2 [A,CF]2 [A,CF]2 | [_B,CG]2 z2 [B,CE]2 z2 | %107
 [A,CF]2 z2 [A,CF]2 [A,CF]2 | [_B,CG]2 z2 [B,CE]2 z2 | [A,CF]2 z2 [A,DF]2 z2 | %110
 z2 [A,^CG]2 z2 [A,DF]2 | [E^G]2 z2 [EA]2 [EB]2 | [Ec]2 [A^c]2 [Ad]2 [A^d]2 | %113
 [^Ge]2 z2 [Be^g]2 [Beg]2 | [cea]2 z2 [cea]2 z2 | [Be^g]2 z2 [B,E^G]2 [B,EG]2 | %116
 [CEA]2 z2 [CEA]2 z2 | [B,E^G]2 [E=G]2 [EA]2 [E^GB]2 | [EAc]2 [A^c]2 [Ad]2 [Ace]2 | %119
 [Adf]2 [dfa]2 [df_b]2 z2 | z2 [cea]2 z2 [de^g]2 | [cea]2 [A^ceg]2 [Adf]2 [Gce]2 | %122
 [FAd]2 [FGB]2 [EGc]2 [FGB]2 | [EGc]2 [EG]2 [DE^G]2 [CEA]2 | [E^GB]2 [E=Gc]2 [E^Gd]2 [EAc]2 | %125
 [E^GB]2 [EG]2 [EA]2 [EGB]2 | [EAc]2 [A^c]2 [Ad]2 [Ace]2 | [Adf]2 [dfa]2 [df_b]2 z2 | %128
 z2 [c^fa]2 z2 [C^FA]2 | [CEA]2 z2 z4 | [cea]2 z2 z4 | [cea]2 z2 z4 | [cea]2 z2 [Be^g]2 z2 | %133
 [^cea]2 z2 z2 [EAc]2 | z2 [E^Gd]2 z2 [EGB]2 | [EA^c]2 z2 z2 [EA=c]2 | z2 [E^Gd]2 z2 [EGB]2 | %137
 z2 [EAc]2 z2 [CE_B]2 | z2 [CFA]2 z2 [A,^CG]2 | z2 [A,DF]2 z2 [G,DF]2 | %140
 [G,CE]2 [G,DF]2 [G,CE]2 C2 | [B,G]2 z2 [DGB]2 [DGB]2 | [_EGc]2 z2 [EGc]2 z2 | %143
 [DGB]2 z2 [G,B,D]2 [G,B,D]2 | [G,C_E]2 z2 [EGc]2 z2 | [DGB]2 [_EGc]2 [DGB]2 [EGc]2 | %146
 [DGB]2 [_EGc]2 [GBd]2 [Gc_e]2 | [Bdg]2 z2 z4 | [cfa]2 z2 z4 | [DFB]2 z2 z4 | z8 | %151
 z2 z2 z2 [G,CE]2 | z2 [G,DF]2 z2 [G,DF]2 | z2 [G,CE]2 z2 [A,EG]2 | [A,DF]2 [B,DF]2 [CE]2 [CD^F]2 | %155
 [B,DG]2 z2 z2 [G,CE]2 | z2 [G,DF]2 z2 [G,DF]2 | z2 [G,CE]2 z2 [CG_B]2 | z2 [CFA]2 z2 [DAc]2 | %159
 z2 [DGB]2 z2 [Gdf]2 | [Gce]2 [EBd]2 [EAc]2 [CG_B]2 | z2 [CFA]2 z2 [C_EA]2 | z2 [CEG]2 z2 [DFB]2 | %163
 [C_Ec]2 z2 [E_Ac]2 [EAc]2 | [_E_B_d]2 z2 [EBd]2 z2 | [_E_Ac]2 z2 [E^Fc]2 [EFc]2 | %166
 [EGc]2 z2 [DFB]2 z2 | [C_Ec]2 z2 [_A,C]2 [A,C]2 |[K:bass] [_E,_B,_D]2 z2 [E,B,D]2 z2 | %169
 [_E,_A,C]2 z2 [E,^F,C]2 [E,F,C]2 |[K:treble] [E,G,C]2 z2 [D,G,B,]2 [DGB]2 | %171
 [EGc]2 [EA^c]2 [FAd]2 [DGB]2 | [EGc]2 [EFc]2 [DFB]2 [DEB]2 | [CEA]2 [CDA]2 [B,DG]2 [DGB]2 | %174
 [CGc]2 [CFA]2 [CEG]2 [FGB]2 | [EGc]2 [EA^c]2 [FAd]2 [DGB]2 | [EGc]2 [EFc]2 [DFB]2 [DE^G]2 | %177
 [CEA]2 [CD^F]2 [B,DG]2 [DGB]2 | [CGc]2 [FA]2 [EG]2 [FGB]2 | z2 [EGc]2 z2 [FGB]2 | %180
 z2 [EGc]2 z2 [FGB]2 | z2 [EGc]2 z2 [FGB]2 | z2 [EGc]2 z2 [FGB]2 | [EGc]2 [FGB]2 [EGc]2 [GBd]2 | %184
 [Gce]2 [Bdg]2 [ceg]2 [dgb]2 | [egc']2 z2 z4 | [egc']2 z2 z4 | [EGc]2 z2 z4 | [EGc]2 z2 [EGc]2 z2 | %189
 [E,G,C]4 z4 |] %190
V:3
 z8 | C,2 z2 C,2 z2 | B,,2 z2 B,,2 z2 | C,2 z2 ^C,2 z2 | D,2 G,,2 C,2 D,2 | G,,2 z2 C,2 z2 | %6
 B,,2 z2 B,,2 z2 | C,2 z2 ^C,2 z2 | D,2 G,,2 C,2 F,,2 | B,,2 E,,2 A,,2 D,,2 | G,,2 z2 F,2 z2 | %11
 E,2 z2 F,2 z2 | G,2 z2 G,,2 z2 | C,2 z2 E,2 z2 | F,2 z2 G,2 z2 | C,2 z2 E,2 z2 | F,2 z2 G,2 z2 | %17
 C,2 z2 A,,2 z2 | E,2 z2 A,,2 z2 | D,2 z2 G,,2 z2 | E,,2 z2 A,,2 z2 | D,2 z2 ^F,2 z2 | %22
 G,2 z2 A,2 z2 | D,2 z2 ^F,,2 z2 | G,,2 z2 A,,2 z2 | D,2 A,,2 D,2 A,,2 | D,2 A,,2 D,2 A,,2 | %27
 D,,2 z2 ^F,,2 z2 | G,,2 z2 ^D,2 z2 | E,2 z2 G,,2 z2 | C,2 z2 D,2 D,2 | G,2 E,2 A,,2 D,2 | %32
 G,,2 C,2 ^F,,2 B,,2 | E,,2 A,,2 D,2 C,2 | B,,2 C,2 D,2 D,,2 | G,,2 E,2 A,,2 D,2 | %36
 G,,2 C,2 ^F,,2 B,,2 | E,,2 A,,2 D,2 C,2 | B,,2 C,2 D,2 D,,2 | G,,2 z2 ^F,,2 z2 | G,,2 z2 D,2 z2 | %41
 G,,2 z2 D,2 z2 | G,,2 D,,2 G,,2 D,,2 | G,,2 z2 z4 | F,,2 z2 z4 | G,,2 z2 z4 | z8 | z2 z2 C,2 z2 | %48
 B,,2 z2 B,,2 z2 | C,2 z2 ^C,2 z2 | D,2 G,,2 C,2 D,2 | G,,2 z2 C,2 z2 | B,,2 z2 B,,2 z2 | %53
 C,2 z2 ^C,2 z2 | D,2 G,,2 C,2 F,,2 | B,,2 E,,2 A,,2 D,,2 | G,,2 z2 F,2 z2 | E,2 z2 F,2 z2 | %58
 G,2 z2 G,,2 z2 | C,2 z2 E,2 z2 | F,2 z2 G,2 z2 | C,2 z2 E,2 z2 | F,2 z2 G,2 z2 | C,2 z2 A,,2 z2 | %64
 E,2 z2 A,,2 z2 | D,2 z2 G,,2 z2 | E,,2 z2 A,,2 z2 | D,2 z2 ^F,2 z2 | G,2 z2 A,2 z2 | %69
 D,2 z2 ^F,,2 z2 | G,,2 z2 A,,2 z2 | D,2 A,,2 D,2 A,,2 | D,2 A,,2 D,2 A,,2 | D,,2 z2 ^F,,2 z2 | %74
 G,,2 z2 ^D,2 z2 | E,2 z2 G,,2 z2 | C,2 z2 D,2 D,2 | G,2 E,2 A,,2 D,2 | G,,2 C,2 ^F,,2 B,,2 | %79
 E,,2 A,,2 D,2 C,2 | B,,2 C,2 D,2 D,,2 | G,,2 E,2 A,,2 D,2 | G,,2 C,2 ^F,,2 B,,2 | %83
 E,,2 A,,2 D,2 C,2 | B,,2 C,2 D,2 D,,2 | G,,2 z2 ^F,,2 z2 | G,,2 z2 D,2 z2 | G,,2 z2 D,2 z2 | %88
 G,,2 D,,2 G,,2 D,,2 | G,,2 z2 z4 | F,,2 z2 z4 | D,,2 z2 z4 | E,,2 z2 z4 | z4 A,,2 z2 | %94
 E,,2 z2 E,2 z2 | A,,2 z2 C,2 z2 | G,2 z2 G,,2 z2 | C,2 z2 E,2 z2 | B,,2 z2 B,,2 z2 | %99
 E,2 z2 A,,2 z2 | B,,2 z2 B,,2 z2 | E,,2 z2 A,,2 z2 | D,,2 z2 G,,2 z2 | C,2 z2 F,,2 z2 | %104
 _B,,2 z2 C,2 C,2 | [F,,F,]2 z2 [F,,F,]2 [F,,F,]2 | [E,,E,]2 z2 C,2 z2 | %107
 [F,,F,]2 z2 [F,,F,]2 [F,,F,]2 | [E,,E,]2 z2 C,2 z2 | [F,,F,]2 z2 [D,,D,]2 z2 | E,2 z2 D,2 z2 | %111
 D2 z2 C2 ^G,2 | A,2 G2 ^F2 =F2 | E2 z2 [E,E]2 [E,E]2 | [E,E]2 z2 [E,E]2 z2 | [E,E]2 z2 E,2 E,2 | %116
 E,2 z2 E,2 z2 | E,2 D2 C2 B,2 | A,2 G2 F2 E2 | D2 z2 [D,D]2 z2 | [E,E]2 z2 [E,E]2 z2 | %121
 A,2 A,,2 D,2 A,,2 | D,2 G,,2 C,2 G,,2 | C,2 C2 B,2 A,2 | E,2 C,2 B,,2 A,,2 | E,2 D2 C2 B,2 | %126
 A,2 G2 F2 E2 | D2 z2 [D,D]2 z2 | [^D,^D]2 z2 [^D,,D,]2 z2 | [E,,E,]2 z2 z4 | [E,E]2 z2 z4 | %131
 [E,E]2 z2 z4 | [E,E]2 z2 [E,E]2 z2 | [A,,A,]2 z2 A,2 z2 | B,2 z2 E,2 z2 | A,2 z2 A,2 z2 | %136
 B,2 z2 E,2 z2 | A,2 z2 G,2 z2 | F,2 z2 E,2 z2 | D,2 z2 G,,2 z2 | C,2 B,,2 C,2 D,2 | %141
 G,,2 z2 [G,,G,]2 [G,,G,]2 | [G,,G,]2 z2 [G,,G,]2 z2 | G,,2 z2 G,,2 G,,2 | G,,2 z2 G,,2 z2 | %145
 G,,2 G,2 G,,2 G,2 | G,,2 G,2 G,,2 G,2 | G,,2 z2 z4 | F,,2 z2 z4 | G,,2 z2 z4 | z8 | z2 z2 C,2 z2 | %152
 B,,2 z2 B,,2 z2 | C,2 z2 ^C,2 z2 | D,2 G,,2 C,2 D,2 | G,,2 z2 C,2 z2 | B,,2 z2 B,,2 z2 | %157
 C,2 z2 E,2 z2 | F,2 z2 ^F,2 z2 | G,2 z2 B,2 z2 | C2 ^G,2 A,2 E,2 | F,2 z2 ^F,2 z2 | %162
 G,2 z2 G,,2 z2 | _A,,2 z2 [A,,_A,]2 [A,,A,]2 | [G,,G,]2 z2 _E,2 z2 | %165
 [_A,,_A,]2 z2 [A,,A,]2 [A,,A,]2 | [G,,G,]2 z2 [G,,G,]2 z2 | [_A,,_A,]2 z2 [A,,_E,]2 [A,,E,]2 | %168
 G,,2 z2 _E,,2 z2 | _A,,2 z2 A,,2 A,,2 | G,,2 z2 G,,2 G,,2 | C,2 A,,2 D,2 G,,2 | %172
 C,2 F,,2 B,,2 E,,2 | A,,2 D,,2 G,,2 F,2 | E,2 F,2 G,2 G,,2 | C,2 A,,2 D,2 G,,2 | %176
 C,2 F,,2 B,,2 E,,2 | A,,2 D,,2 G,,2 F,2 | E,2 F,2 G,2 G,,2 | C,2 z2 G,,2 z2 | C,2 z2 G,2 z2 | %181
 C,2 z2 G,,2 z2 | C,2 z2 G,,2 z2 | C,2 G,,2 C,2 G,2 | C2 G,2 C2 G,2 | C,2 z2 z4 | [C,C]2 z2 z4 | %187
 [C,C]2 z2 z4 | [C,,C,]2 z2 [C,,C,]2 z2 | [C,,C,]4 z4 |] %190
V:4
 x8 | x8 | x8 | x8 | x8 | x8 | x8 | x8 | x8 | x8 | x8 | x8 | x8 | x8 | x8 | x8 | x8 | x8 | x8 | %19
 x8 | x8 | x8 | x8 | x8 | x8 | x8 | x8 | x8 | x8 | x8 | x8 | x8 | x8 | x8 | x8 | x8 | x8 | x8 | %38
 x8 | x8 | x8 | x8 | x8 | x8 | x8 | x8 | x8 | x8 | x8 | x8 | x8 | x8 | x8 | x8 | x8 | x8 | x8 | %57
 x8 | x8 | x8 | x8 | x8 | x8 | x8 | x8 | x8 | x8 | x8 | x8 | x8 | x8 | x8 | x8 | x8 | x8 | x8 | %76
 x8 | x8 | x8 | x8 | x8 | x8 | x8 | x8 | x8 | x8 | x8 | x8 | x8 | x8 | x8 | x8 | x8 | x8 | x8 | %95
 x8 | x8 | x8 | x8 | x8 | x8 | x8 | x8 | x8 | x8 | x8 | x8 | x8 | x8 | x8 | x8 | x8 | x8 | x8 | %114
 x8 | x8 | x8 | x8 | x8 | x8 | x8 | x8 | x8 | x8 | x8 | x8 | x8 | x8 | x8 | x8 | x8 | x8 | x8 | %133
 x8 | x8 | x8 | x8 | x8 | x8 | x8 | z4 z2 D^F | z8 | x8 | x8 | x8 | x8 | x8 | x8 | x8 | x8 | x8 | %151
 x8 | x8 | x8 | x8 | x8 | x8 | x8 | x8 | x8 | x8 | x8 | x8 | x8 | x8 | x8 | x8 | x8 |[K:bass] x8 | %169
 x8 |[K:treble] x8 | x8 | x8 | x8 | x8 | x8 | x8 | x8 | x8 | x8 | x8 | x8 | x8 | x8 | x8 | x8 | %186
 x8 | x8 | x8 | x8 |] %190

